X: 7
T: die Alte Kathe (C)
R:zwiefacher
O:Bavaria
Z:John Chambers <jc@trillian.mit.edu>
N:From handwritten MS and transcription by Tom Pixton
M:3/4
K:C
|:      "C"[G3E3] [FD][EC][FD] | [G2E2] z2 [c2E2] |[M:2/4]"G7"[B2D2] [d2F2] | "C"[c2E2] [e2G2] \
|[M:3/4]"C"[G3E3] [FD][EC][FD] | [G2E2] z2 [c2E2] |[M:2/4]"G7"[B2D2] [d2F2] | "C"[c2E2] z2 :|
M:3/4
|:      "F"[A2F2] [fA][eG] [f2A2] | "C"[G2E2] [eG][^d^F] [e2G2] |[M:2/4]"G7"[B2G2] [d2F2] | "C"[c2E2] [e2G2] \
|[M:3/4]"F"[A2F2] [fA][eG] [f2A2] | "C"[G2E2] [eG][^d^F] [e2G2] |[M:2/4]"G7"[B2G2] [d2F2] | "C"[c2E2] z2 :|


%%sep 1 1 500

